X: 17943
T: How Cold The Wind Doth Blow
R: barndance
M: 4/4
K: Fmajor
F2|A2 F2 B2 d2|{c}A6 G2|F6 F2|A2 F2 B2 d2|{c}A4 (3GAG F2|
G6 F2|A2 GF A2 GF|A2 c2 f4|f4 d4|c2 A2 FA cB|
A4 G4 {AG}|F6||

